packages/core/src/svgs/tokens/mono/THEO.svg

<svg width="24" height="24" viewBox="0 0 24 24" fill="none" xmlns="http://www.w3.org/2000/svg">
<path d="M2 4.54667C2 3.87124 2.2683 3.22349 2.74591 2.74591C3.22349 2.2683 3.87124 2 4.54667 2H19.4534C20.1288 2 20.7765 2.2683 21.2541 2.74591C21.7317 3.22349 22 3.87124 22 4.54667V6.68668C22 7.04667 21.7133 7.33334 21.3533 7.33334C20.9934 7.33334 20.6667 7.04667 20.6667 6.68668V4.58668C20.6667 3.89333 20.1467 3.33333 19.4534 3.33333H4.54667C3.85334 3.33333 3.33333 3.89333 3.33333 4.58668V19.4534C3.33333 20.1467 3.85334 20.6667 4.54667 20.6667H19.4534C20.1467 20.6667 20.6667 20.1467 20.6667 19.4534V10.6467C20.6719 10.4733 20.7445 10.3089 20.8689 10.1882C20.9934 10.0675 21.16 9.99994 21.3334 9.99994C21.5067 9.99994 21.6733 10.0675 21.7978 10.1882C21.9224 10.3089 21.9949 10.4733 22 10.6467V19.4467C22.0009 19.7818 21.9357 20.1136 21.808 20.4233C21.6805 20.733 21.493 21.0145 21.2564 21.2518C21.02 21.489 20.7389 21.6772 20.4295 21.8055C20.1201 21.9339 19.7883 22 19.4534 22H4.54667C3.87124 22 3.22349 21.7317 2.74591 21.2541C2.2683 20.7765 2 20.1288 2 19.4534V4.54667Z" fill="white"/>
<path d="M12.0198 6.66681C12.4487 6.65068 12.8763 6.72114 13.2772 6.87396C13.6782 7.0268 14.0442 7.25885 14.3535 7.55629C14.6627 7.85373 14.9088 8.21045 15.0773 8.60514C15.2456 8.99985 15.3325 9.42436 15.3332 9.85354C15.3332 10.8668 14.6265 11.8135 13.8264 12.3868L15.2666 17.0001C15.4265 17.4935 15.0398 18.0002 14.5065 18.0002H9.49313C8.95988 18.0002 8.57317 17.4935 8.73318 17.0001L10.1732 12.3935C9.37319 11.8135 8.6665 10.8668 8.6665 9.86007C8.6665 8.26015 9.87984 6.68681 11.9798 6.66681H12.0198ZM11.9999 8.00014C10.7866 8.01347 9.99977 8.88681 9.99977 9.85354C9.99977 10.4667 10.4865 11.0001 11.0199 11.3335C11.4399 11.6001 11.6666 12.1001 11.5199 12.5667L10.3264 16.6669H13.6732L12.4798 12.5667C12.3331 12.1001 12.5599 11.6068 12.9799 11.3335C13.5132 11.0001 13.9999 10.4667 13.9999 9.85354C13.9999 8.88681 13.2132 8.01347 11.9999 8.00014Z" fill="white"/>
</svg>

<svg xmlns="http://www.w3.org/2000/svg" width="24" height="24" fill="none" viewBox="0 0 24 24">
    <path fill="#fff" d="M2 4.547A2.547 2.547 0 0 1 4.547 2h14.906A2.546 2.546 0 0 1 22 4.547v2.14c0 .36-.287.646-.647.646s-.686-.286-.686-.646v-2.1c0-.694-.52-1.254-1.214-1.254H4.547c-.694 0-1.214.56-1.214 1.254v14.866c0 .694.52 1.214 1.214 1.214h14.906c.694 0 1.214-.52 1.214-1.214v-8.806a.667.667 0 0 1 1.333 0v8.8a2.54 2.54 0 0 1-1.57 2.358c-.31.129-.642.195-.977.195H4.547A2.547 2.547 0 0 1 2 19.453z"/>
    <path fill="#fff" d="M12.02 6.667a3.193 3.193 0 0 1 3.313 3.187c0 1.013-.707 1.96-1.507 2.533L15.266 17c.16.494-.226 1-.76 1H9.494c-.533 0-.92-.506-.76-1l1.44-4.607c-.8-.58-1.507-1.526-1.507-2.533 0-1.6 1.214-3.173 3.314-3.193zM12 8c-1.213.013-2 .887-2 1.854 0 .613.486 1.146 1.02 1.48.42.266.647.766.5 1.233l-1.194 4.1h3.347l-1.193-4.1c-.147-.467.08-.96.5-1.233.533-.334 1.02-.867 1.02-1.48 0-.967-.787-1.84-2-1.854"/>
</svg>
